X:1
T: The Reel of Mey
C:
R:Jig
Q:150
K:Em
M:6/8
L:1/16
B,2|:E4F2 G4A2|B4c2 B6|A2F2D2 D4F2|G4E2 F4B,2|
E4F2 G4A2|B4c2 B6|A2G2F2 G4F2|E6 E4B,2:|
|:G4B2 d2B2G2|F4A2 c4F2|G4B2 d2B2G2|A6 A4D2|
E4G2 B2G2E2|^D4F2 A4D2|E2G2A2 B4c2|B6 B4B,2|
E4F2 G4A2|B4c2 B6|A2F2D2 D4F2|G4E2 F4B,2|
E4F2 G4A2|B4c2 B6|A2G2F2 E4^D2|1E6E6:|2E6E4||
